icons/printer-outline.svg

<svg width="24" height="24" viewBox="0 0 24 24" fill="none" xmlns="http://www.w3.org/2000/svg">
<path d="M19 9.00707H20C20.5304 9.00707 21.0391 9.21778 21.4142 9.59286C21.7893 9.96793 22 10.4766 22 11.0071V17.0071C22 18.3401 21.333 19.0071 20 19.0071H19V20.0071C19 21.3401 18.333 22.0071 17 22.0071H7C5.667 22.0071 5 21.3411 5 20.0071V19.0071H4C2.667 19.0071 2 18.3401 2 17.0071V11.0071C2 10.4766 2.21071 9.96793 2.58579 9.59286C2.96086 9.21778 3.46957 9.00707 4 9.00707H5V5.00707C5 3.35307 6.218 2.00707 7.714 2.00707H13.996C14.363 1.98007 14.682 2.03307 14.952 2.16807C15.222 2.30307 15.572 2.58307 16 3.00707L18.125 5.00807C18.535 5.40107 18.785 5.73407 18.87 6.00807C18.957 6.28207 19 6.61607 19 7.01107V9.00707ZM7 20.0071H17V17.0071H7V20.0071ZM7 5.00707V9.00707H17V6.69307L14.172 4.00707H7.714C7.327 4.00707 7 4.46507 7 5.00707ZM4 11.0001V17.0001H5V15.0001H19V17.0001H20V11.0001H4ZM18 14.0071C17.7348 14.0071 17.4804 13.9017 17.2929 13.7142C17.1054 13.5266 17 13.2723 17 13.0071C17 12.7419 17.1054 12.4875 17.2929 12.3C17.4804 12.1124 17.7348 12.0071 18 12.0071C18.2652 12.0071 18.5196 12.1124 18.7071 12.3C18.8946 12.4875 19 12.7419 19 13.0071C19 13.2723 18.8946 13.5266 18.7071 13.7142C18.5196 13.9017 18.2652 14.0071 18 14.0071Z" fill="#3A3A47"/>
</svg>

<svg xmlns="http://www.w3.org/2000/svg" width="24" height="24" viewBox="0 0 24 24">
    <path fill="#3A3A47" fill-rule="evenodd" d="M14.952 2.168c.237.118.534.347.891.687l.157.152 2.125 2.001c.41.393.66.726.745 1 .07.22.111.477.125.773l.005.23v1.996h1c1.054 0 1.918.816 1.995 1.85l.005.15v6c0 1.273-.607 1.938-1.822 1.996l-.178.004h-1v1c0 1.273-.607 1.938-1.822 1.996l-.178.004H7c-1.273 0-1.938-.607-1.996-1.822L5 20.007v-1H4c-1.273 0-1.938-.608-1.996-1.822L2 17.007v-6c0-1.054.816-1.918 1.85-1.995L4 9.007h1v-4c0-1.595 1.133-2.904 2.555-2.995l.159-.005h6.282c.367-.027.686.026.956.161zM17 17.007H7v3h10v-3zM20 11H4v6h1v-2h14v2h1v-6zm-2 1.007a1 1 0 1 1 0 2 1 1 0 0 1 0-2zm-3.828-8H7.714c-.357 0-.663.39-.708.877L7 5.007v4h10V6.693l-2.828-2.686z"/>
</svg>
